src/assets/icons/hamburger.svg

<svg xmlns="http://www.w3.org/2000/svg" width="596" height="596" fill="none"><g clip-path="url(#A)" fill="#444"><path d="M581.483 267.939c1.855-2.771 2.965-6.113 3.021-9.233 6.02-324.994-595.01-255.079-539.22-14.334C22.599 249.966 3.28 267.899.343 292.609c-3.219 27.095 16.613 37.697 38.615 38.377-2.551 9.26-3.673 18.969-2.384 27.898-28.498 29.231-20.224 55.686 3.243 73.226-12.411 7.176-17.605 22.667-16.251 40.925 2.31 31.151 28.572 56.591 55.398 68.819 68.134 31.062 159.772 4.997 232.246 5.655 63.217.576 339.659 1.355 245.387-126.227 24.423-18.06 28.491-45.327-7.232-86.567 8.345-.625 16.43-1.497 23.489-3.547 34.45-10.024 24.383-42.674 8.629-63.229zm-79.969-136.91c17.219 15.141 30.65 34.45 39.524 55.54 3.822 9.084 6.212 18.694 8.401 28.269a140.33 140.33 0 0 1 2.702 18.954c.841 8.428-4.171 17.067 4.422 13.014-45.371 21.408-104.21 25.564-153.189 31.633-61.161 7.581-123.148 11.301-184.764 9.273-32.041-1.055-118.472-.693-133.62-39.079-2.65-6.713-8.15-10.086-13.911-10.884C57.556 45.887 392.397 35.093 501.514 131.029zM23.072 285.696c4.82-11.326 15.175-20.314 26.423-26.721.931 2.792 1.837 5.581 2.944 8.417 2.022 5.182 6.15 7.587 10.305 7.822 41.391 56.452 158.835 49.059 216.109 47.99l2.356-.056c-5.318 13.382-10.429 25.79-21.526 36.469-16.919 16.288-38.494 8.657-54.325-4.499-4.498-3.738-9.844-1.969-12.398 1.611-.73-.893-1.676-1.632-3.036-1.923-19.986-4.285-35.904 14.099-51.589-9.285-3.46-5.157-10.216-5.027-13.7 0-11.477 16.567-24.683 28.866-45.825 29.262-29.055.544-27.833-29.886-18.926-49.041 2.616-5.621-.34-14.393-7.866-13.709-19.263 1.759-38.785-3.213-28.946-26.337zm316.435 240.9c-41.005.358-81.215 1.042-122.177 4.022-31.336 2.276-62.605 3.287-93.935.517-18.551-1.642-38.12-6.496-52.581-18.762-17.905-15.191-44.74-52.532-11.183-69.064 6.666 2.869 13.775 5.275 21.201 7.019 72.765 17.073 150.758 9.17 224.68 7.034 39.44-1.138 169.492 2.959 233.631-26.071 62.939 98.044-144.028 94.822-199.636 95.305zm196.862-114.361c-25.264 15.432-60.864 18.029-89.446 20.642-47.154 4.313-94.226 1.023-141.414 2.044-52.659 1.141-105.101 4.495-157.805 2.368-27.37-1.104-54.811-4.288-80.99-12.587-29.114-9.223-29.803-25.264-20.663-45.315 3.584 3.775 8.215 6.972 14.173 9.306 26.85 10.525 57.309-2.198 72.753-25.375 5.04 5.303 11.016 9.984 18.27 10.241 13.017.463 23.832-7.279 37.001-6.382 2.04.139 3.552-.755 4.601-2.056.327.507.522 1.026.992 1.518 18.388 19.225 42.236 25.947 66.773 14.464 16.56-7.752 29.095-26 33.696-44.768 17.327 30.341 50.15 41.268 78.457 15.688 22.481 46.274 92.943 66.817 114.707 7.634 6.564-17.849 24.268-21.866 43.543-23.61-.674 2.159-.491 4.533 1.187 6.787 16.994 22.797 35.585 50.207 4.165 69.401zm-11.508-91.616a6.41 6.41 0 0 0-3.416 0c-14.421 4.749-20.555 10.469-38.025 11.013-3.803.118-6.224 2.9-6.539 6.54-5.627 64.348-81.583 50.027-93.97-2.026-1.286-5.398-8.944-7.59-12.723-3.357-24.559 27.49-55.772 18.539-71.383-10.055 88.621-2.424 189.603-11.06 270.45-47.007.646 40.461-14.143 55.438-44.394 44.892zM170.079 141.05c-8.394 1.339-16.102-.495-24.169 3.249-10.608 4.929-11.975 19.167-11.969 29.259.003 2.863 1.633 6.45 4.406 7.681 6.24 2.77 11.49 3.948 18.276 2.921 3.977-.603 7.007-3.132 10.637-4.368 5.686-1.936 6.635-10.998 0-12.467-5.201-1.15-10.232.377-15.234-.176.204-2.332.55-4.638 1.224-6.892.563-1.877 1.834-2.829 2.73-3.383 4.799-2.971 11.759-5.179 17.399-7.998 4.681-2.341 1.144-8.537-3.3-7.826zm68.094-9.996c-.838-8.12-4.27-14.415-9.635-20.49-2.773-3.142-7.225-2.993-10.682-1.379-8.701 4.066-17.448 10.246-18.187 20.678-.522 7.384 3.686 13.821 4.567 20.991 1.045 8.5 12.711 8.781 13.434 0 .48-5.846-.488-11.461-1.026-17.259-.189-2.037-.309-1.802.594-2.798.828-.915 1.954-1.629 3.02-2.381 1.147 2.137 1.862 4.459 2.335 7.406 1.088 6.762 1.258 14.501 6.848 19.247 3.315 2.813 8.735 1.978 9.962-2.632 1.738-6.527-.538-14.649-1.23-21.383zm-44.252 79.388c-9.566.154-26.924.467-28.844 13.403-1.849 12.457 11.394 20.462 21.649 23.338 5.164 1.447 10.201-5.841 5.557-9.542l-9.656-7.603c-1.222-.949-2.301-2.047-3.321-3.203-.139-.158-.226-.352-.294-.526.028-.191.059-.426.198-.671.424-.754 1.376-1.388 2.069-1.883 4.093-2.918 8.793-5.775 13.403-7.705 2.78-1.165 2.721-5.67-.761-5.608zm305.187-2.004c-7.584 2.362-12.834 10.027-21.13 10.451-8.413.43-7.829-11.595-7.396-16.947.449-5.46-8.985-5.358-8.394 0 .93 8.466 2.557 20.812 11.638 24.469 9.928 4.001 25.205-2.318 30.971-10.574 2.557-3.661-1.651-8.657-5.689-7.399zm-37.804-68.037c-14.096 3.187-13.327 22.286-12.399 33.16.677 7.943 11.446 7.835 12.259 0 .412-3.973.662-9.424 2.765-12.936.742-1.243 1.471-2.396 2.139-3.686.04-.077.081-.108.121-.173 1.119.353 2.251 1.175 3.453 2.01 4.301 2.983 6.874 7.436 12.368 8.53 3.516.702 6.456-1.512 6.697-5.101.823-12.312-15.892-24.408-27.403-21.804z"/></g><defs><clipPath id="A"><path fill="#fff" d="M0 0h596v596H0z"/></clipPath></defs></svg>

<svg width="596" height="596" viewBox="0 0 596 596" fill="none" xmlns="http://www.w3.org/2000/svg">
<g clip-path="url(#clip0)">
<path d="M581.483 267.939C583.338 265.168 584.448 261.826 584.504 258.706C590.524 -66.2875 -10.5064 3.6268 45.284 244.372C22.5987 249.966 3.2804 267.899 0.343089 292.609C-2.87559 319.704 16.9559 330.306 38.958 330.986C36.4071 340.246 35.2848 349.955 36.5741 358.884C8.07596 388.115 16.3499 414.57 39.8175 432.11C27.4066 439.286 22.2122 454.777 23.5664 473.035C25.8761 504.186 52.1388 529.626 78.9642 541.854C147.098 572.916 238.736 546.851 311.21 547.509C374.427 548.085 650.869 548.864 556.597 421.282C581.02 403.222 585.088 375.955 549.365 334.715C557.71 334.09 565.795 333.218 572.854 331.168C607.304 321.144 597.237 288.494 581.483 267.939ZM501.514 131.029C518.733 146.17 532.164 165.479 541.038 186.569C544.86 195.653 547.25 205.263 549.439 214.838C550.771 221.09 551.671 227.41 552.141 233.792C552.982 242.22 547.97 250.859 556.563 246.806C511.192 268.214 452.353 272.37 403.374 278.439C342.213 286.02 280.226 289.74 218.61 287.712C186.569 286.657 100.138 287.019 84.9904 248.633C82.3406 241.92 76.8401 238.547 71.0798 237.749C57.5558 45.887 392.397 35.0932 501.514 131.029ZM23.0717 285.696C27.892 274.37 38.2468 265.382 49.4952 258.975C50.4259 261.767 51.3318 264.556 52.4387 267.392C54.4608 272.574 58.5885 274.979 62.744 275.214C104.135 331.666 221.579 324.273 278.853 323.204C279.629 323.185 280.43 323.163 281.209 323.148C275.891 336.53 270.78 348.938 259.683 359.617C242.764 375.905 221.189 368.274 205.358 355.118C200.86 351.38 195.514 353.149 192.96 356.729C192.23 355.836 191.284 355.097 189.924 354.806C169.938 350.521 154.02 368.905 138.335 345.521C134.875 340.364 128.119 340.494 124.635 345.521C113.158 362.088 99.9521 374.387 78.8096 374.783C49.7549 375.327 50.9762 344.897 59.884 325.742C62.4998 320.121 59.5439 311.349 52.0182 312.033C32.7556 313.792 13.2333 308.82 23.0717 285.696ZM339.507 526.596C298.502 526.954 258.292 527.638 217.33 530.618C185.994 532.894 154.725 533.905 123.395 531.135C104.844 529.493 85.2748 524.639 70.8139 512.373C52.9087 497.182 26.074 459.841 59.6305 443.309C66.2967 446.178 73.405 448.584 80.8317 450.328C153.597 467.401 231.59 459.498 305.512 457.362C344.952 456.224 475.004 460.321 539.143 431.291C602.082 529.335 395.115 526.113 339.507 526.596ZM536.369 412.235C511.105 427.667 475.505 430.264 446.923 432.877C399.769 437.19 352.697 433.9 305.509 434.921C252.85 436.062 200.408 439.416 147.704 437.289C120.334 436.185 92.8933 433.001 66.7141 424.702C37.6006 415.479 36.9111 399.438 46.0508 379.387C49.6343 383.162 54.266 386.359 60.2241 388.693C87.0743 399.218 117.533 386.495 132.977 363.318C138.017 368.621 143.993 373.302 151.247 373.559C164.264 374.022 175.079 366.28 188.248 367.177C190.288 367.316 191.8 366.422 192.849 365.121C193.176 365.628 193.371 366.147 193.841 366.639C212.229 385.864 236.077 392.586 260.614 381.103C277.174 373.351 289.709 355.103 294.31 336.335C311.637 366.676 344.46 377.603 372.767 352.023C395.248 398.297 465.71 418.84 487.474 359.657C494.038 341.808 511.742 337.791 531.017 336.047C530.343 338.206 530.526 340.58 532.204 342.834C549.198 365.631 567.789 393.041 536.369 412.235ZM524.861 320.619C523.723 320.31 522.586 320.31 521.445 320.619C507.024 325.368 500.89 331.088 483.42 331.632C479.617 331.75 477.196 334.532 476.881 338.172C471.254 402.52 395.298 388.199 382.911 336.146C381.625 330.748 373.967 328.556 370.188 332.789C345.629 360.279 314.416 351.328 298.805 322.734C387.426 320.31 488.408 311.674 569.255 275.727C569.901 316.188 555.112 331.165 524.861 320.619Z" fill="#444444"/>
<path d="M170.079 141.05C161.685 142.389 153.977 140.555 145.91 144.299C135.302 149.228 133.935 163.466 133.941 173.558C133.944 176.421 135.574 180.008 138.347 181.239C144.587 184.009 149.837 185.187 156.623 184.16C160.6 183.557 163.63 181.028 167.26 179.792C172.946 177.856 173.895 168.794 167.26 167.325C162.059 166.175 157.028 167.702 152.026 167.149C152.23 164.817 152.576 162.511 153.25 160.257C153.813 158.38 155.084 157.428 155.98 156.874C160.779 153.903 167.739 151.695 173.379 148.876C178.06 146.535 174.523 140.339 170.079 141.05Z" fill="#444444"/>
<path d="M238.173 131.054C237.335 122.934 233.903 116.639 228.538 110.564C225.765 107.422 221.313 107.571 217.856 109.185C209.155 113.251 200.408 119.431 199.669 129.863C199.147 137.247 203.355 143.684 204.236 150.854C205.281 159.354 216.947 159.635 217.67 150.854C218.15 145.008 217.182 139.393 216.644 133.595C216.455 131.558 216.335 131.793 217.238 130.797C218.066 129.882 219.192 129.168 220.258 128.416C221.405 130.553 222.12 132.875 222.593 135.822C223.681 142.584 223.851 150.323 229.441 155.069C232.756 157.882 238.176 157.047 239.403 152.437C241.141 145.91 238.865 137.788 238.173 131.054Z" fill="#444444"/>
<path d="M193.921 210.442C184.355 210.596 166.997 210.909 165.077 223.845C163.228 236.302 176.471 244.307 186.726 247.183C191.89 248.63 196.927 241.342 192.283 237.641C189.079 235.09 185.861 232.549 182.627 230.038C181.405 229.089 180.326 227.991 179.306 226.835C179.167 226.677 179.08 226.483 179.012 226.309C179.04 226.118 179.071 225.883 179.21 225.638C179.634 224.884 180.586 224.25 181.279 223.755C185.372 220.837 190.072 217.98 194.682 216.05C197.462 214.885 197.403 210.38 193.921 210.442Z" fill="#444444"/>
<path d="M499.108 208.438C491.524 210.8 486.274 218.465 477.978 218.889C469.565 219.319 470.149 207.294 470.582 201.942C471.031 196.482 461.597 196.584 462.188 201.942C463.118 210.408 464.745 222.754 473.826 226.411C483.754 230.412 499.031 224.093 504.797 215.837C507.354 212.176 503.146 207.18 499.108 208.438Z" fill="#444444"/>
<path d="M461.304 140.401C447.208 143.588 447.977 162.687 448.905 173.561C449.582 181.504 460.351 181.396 461.164 173.561C461.576 169.588 461.826 164.137 463.929 160.625C464.671 159.382 465.4 158.229 466.068 156.939C466.108 156.862 466.149 156.831 466.189 156.766C467.308 157.119 468.44 157.941 469.642 158.776C473.943 161.759 476.516 166.212 482.01 167.306C485.526 168.008 488.466 165.794 488.707 162.205C489.53 149.893 472.815 137.797 461.304 140.401Z" fill="#444444"/>
</g>
<defs>
<clipPath id="clip0">
<rect width="596" height="596" fill="white"/>
</clipPath>
</defs>
</svg>
